X: 03002
T: ALY'S FIDDLE
C: Bob McQuillen 3 Apr 1977
B: Bob's Note Book 3 #2
R: jig
Z: 2004 John Chambers
M: 6/8
L: 1/8
K: A
   E | ABc  cBA  | efg a2e | def ecA | BGE dcB | Ace ecA | efg aga | fga ecA | dBG A2 :|
|: e | abc' c'ba | gcc cAc | f2f fga | ecA ABc | dcd fed | cde edc | Bcd efg | aAA A2 :|
%%begintext align
%% For Aly Bain, incredible fiddler with the Boys of the Lough.
%% We love both, you and your music, Aly.
%%endtext

%%sep 1 1 500

%%sep 1 1 500

